packages/kaspersky-hexa-ui-icons/src/iconsSVGs/48/Calendar.svg

<svg xmlns="http://www.w3.org/2000/svg" width="48" height="48" fill="none" viewBox="0 0 48 48"><path fill="currentColor" fill-rule="evenodd" d="M41 3V1h-6v2H14V1H8v2H2v44h45V3zm4 34h-5v5H4V13h41zm-3 2h1.59L42 40.59zM37 3h2v2h-2zM10 3h2v2h-2zM8 5v2h6V5h21v2h6V5h4v6H4V5zM4 45v-1h37.41L45 40.41V45zm7-26H8v-3h3zm5 0h-3v-3h3zm5 0h-3v-3h3zm5 0h-3v-3h3zm5 0h-3v-3h3zm5 0h-3v-3h3zm5 0h-3v-3h3zm-30 5H8v-3h3zm5 0h-3v-3h3zm5 0h-3v-3h3zm5 0h-3v-3h3zm5 0h-3v-3h3zm5 0h-3v-3h3zm5 0h-3v-3h3zm-30 5H8v-3h3zm5 0h-3v-3h3zm5 0h-3v-3h3zm5 0h-3v-3h3zm5 0h-3v-3h3zm5 0h-3v-3h3zm5 0h-3v-3h3zm-30 5H8v-3h3zm5 0h-3v-3h3zm5 0h-3v-3h3zm5 0h-3v-3h3zm5 0h-3v-3h3zm5 0h-3v-3h3zm5 0h-3v-3h3zM8 39v-3h3v3zm8 0h-3v-3h3zm5 0h-3v-3h3z" clip-rule="evenodd"/></svg>

<svg width="48" height="48" viewBox="0 0 48 48" fill="none" xmlns="http://www.w3.org/2000/svg">
<path fill-rule="evenodd" clip-rule="evenodd" d="M41 3V1H35V3H14V1H8V3H2V47H47V3H41ZM45 37H40V42H4V13H45V37ZM42 39H43.59L42 40.59V39ZM37 3H39V5H37V3ZM10 3H12V5H10V3ZM8 5V7H14V5H35V7H41V5H45V11H4V5H8ZM4 45V44H41.41L45 40.41V45H4ZM11 19H8V16H11V19ZM16 19H13V16H16V19ZM21 19H18V16H21V19ZM26 19H23V16H26V19ZM31 19H28V16H31V19ZM36 19H33V16H36V19ZM41 19H38V16H41V19ZM11 24H8V21H11V24ZM16 24H13V21H16V24ZM21 24H18V21H21V24ZM26 24H23V21H26V24ZM31 24H28V21H31V24ZM36 24H33V21H36V24ZM41 24H38V21H41V24ZM11 29H8V26H11V29ZM16 29H13V26H16V29ZM21 29H18V26H21V29ZM26 29H23V26H26V29ZM31 29H28V26H31V29ZM36 29H33V26H36V29ZM41 29H38V26H41V29ZM11 34H8V31H11V34ZM16 34H13V31H16V34ZM21 34H18V31H21V34ZM26 34H23V31H26V34ZM31 34H28V31H31V34ZM36 34H33V31H36V34ZM41 34H38V31H41V34ZM8 39V36H11V39H8ZM16 39H13V36H16V39ZM21 39H18V36H21V39Z"  fill="currentColor"/>
</svg>
